X:3
%%scale 0.85
T:Out from the deep
T:Tenor Viol I
C:Thomas Tallis
%%measurenb 0
%%stretchlast 0
L:1/4
M:4/4
K:C clef=alto
 E2 F F | E E D/C/D/E/ | F2 E E | F/E/D/C/ D3/2 C/ | 
w:Out from the deep I call to thee: O Lord, hear my in - vo - ca- ti- 
B,2 z C |  E F G G | G F G D | F3/2 F/ F E |  D3/2 D/ E2 | z G G C | 
w:on. Thine ears bow down, in- cline to me and hear my la- men- ta- ti- on. For if thou
E2 D F- |  F/F/ E z F | F C E2 | D F3/2 D/ G- | 
w: wilt our sins_ be- hold, that we have done from time_ to
G/E/ ^F G D | E3/2 D/ C2 |  z A, C3/2 C/ | B, B, A, A, | 
w:___ tide, from time to tide.  O Lord who then dare be so 
 G,2 z A, | D3/2 E/ F/D/ F- | F/E/D/C/ D3/2 C/ |  B,/A,/ E D C- |  C B, C2 | 
w:bold as in thy sight for to__ a - bide. For__ to_ a -- bide. 
 z G G C | E2 D F- | F/F/ E z F | F C E2 |  D F3/2 D/ G- | 
w:For if thou wilt our sins_ be- hold, that we have done from time_ to
G/E/ ^F G D | E3/2 D/ C2 |  z A, C3/2 C/ | B, B, A, A, | G,2 z A, |  
w:___ tide, from time to tide. O Lord, who then dare be so bold as
D3/2 E/ F/D/ F- | F/E/D/C/ D3/2 C/ | B,/A,/ E D C- |  C B, C2- | HC4 |] %38
w:in thy sight for to__ a -  bide, for__ to_ a -- bide._

